Assets/Scene/Kotenbu/Frame.CUBE
#Created by: Adobe Photoshop Export Color Lookup Plugin
TITLE "Frame.psd"
#LUT size
LUT_3D_SIZE 8
#data domain
#LUT data points
DOMAIN_MIN 0.000000 0.000000 0.000000
DOMAIN_MAX 0.903226 0.903226 0.903226
0.000000 0.000000 0.000000
0.004548 0.000000 0.000000
0.032665 0.000000 0.000000
0.187392 0.000000 0.000000
0.694060 0.000000 0.000000
1.000000 0.000000 0.000000
1.000000 0.000000 0.000000
1.000000 0.000000 0.000000
0.000000 0.005208 0.000000
0.004548 0.005208 0.000000
0.032665 0.005208 0.000000
0.187392 0.005208 0.000000
0.694060 0.005208 0.000000
1.000000 0.005208 0.000000
1.000000 0.005208 0.000000
1.000000 0.005208 0.000000
0.000000 0.038015 0.000000
0.004548 0.038015 0.000000
0.032665 0.038015 0.000000
0.187392 0.038015 0.000000
0.694060 0.038015 0.000000
1.000000 0.038015 0.000000
1.000000 0.038015 0.000000
1.000000 0.038015 0.000000
0.000000 0.224231 0.000000
0.004548 0.224231 0.000000
0.032665 0.224231 0.000000
0.187392 0.224231 0.000000
0.694060 0.224231 0.000000
1.000000 0.224231 0.000000
1.000000 0.224231 0.000000
1.000000 0.224231 0.000000
0.000000 0.719780 0.000000
0.004548 0.719780 0.000000
0.032665 0.719780 0.000000
0.187392 0.719780 0.000000
0.694060 0.719780 0.000000
1.000000 0.719780 0.000000
1.000000 0.719780 0.000000
1.000000 0.719780 0.000000
0.000000 1.000000 0.000000
0.004548 1.000000 0.000000
0.032665 1.000000 0.000000
0.187392 1.000000 0.000000
0.694060 1.000000 0.000000
1.000000 1.000000 0.000000
1.000000 1.000000 0.000000
1.000000 1.000000 0.000000
0.000000 1.000000 0.000000
0.004548 1.000000 0.000000
0.032665 1.000000 0.000000
0.187392 1.000000 0.000000
0.694060 1.000000 0.000000
1.000000 1.000000 0.000000
1.000000 1.000000 0.000000
1.000000 1.000000 0.000000
0.000000 1.000000 0.000000
0.004548 1.000000 0.000000
0.032665 1.000000 0.000000
0.187392 1.000000 0.000000
0.694060 1.000000 0.000000
1.000000 1.000000 0.000000
1.000000 1.000000 0.000000
1.000000 1.000000 0.000000
0.000000 0.000000 0.005253
0.004548 0.000000 0.005253
0.032665 0.000000 0.005253
0.187392 0.000000 0.005253
0.694060 0.000000 0.005253
1.000000 0.000000 0.005253
1.000000 0.000000 0.005253
1.000000 0.000000 0.005253
0.000000 0.005208 0.005253
0.004548 0.005208 0.005253
0.032665 0.005208 0.005253
0.187392 0.005208 0.005253
0.694060 0.005208 0.005253
1.000000 0.005208 0.005253
1.000000 0.005208 0.005253
1.000000 0.005208 0.005253
0.000000 0.038015 0.005253
0.004548 0.038015 0.005253
0.032665 0.038015 0.005253
0.187392 0.038015 0.005253
0.694060 0.038015 0.005253
1.000000 0.038015 0.005253
1.000000 0.038015 0.005253
1.000000 0.038015 0.005253
0.000000 0.224231 0.005253
0.004548 0.224231 0.005253
0.032665 0.224231 0.005253
0.187392 0.224231 0.005253
0.694060 0.224231 0.005253
1.000000 0.224231 0.005253
1.000000 0.224231 0.005253
1.000000 0.224231 0.005253
0.000000 0.719780 0.005253
0.004548 0.719780 0.005253
0.032665 0.719780 0.005253
0.187392 0.719780 0.005253
0.694060 0.719780 0.005253
1.000000 0.719780 0.005253
1.000000 0.719780 0.005253
1.000000 0.719780 0.005253
0.000000 1.000000 0.005253
0.004548 1.000000 0.005253
0.032665 1.000000 0.005253
0.187392 1.000000 0.005253
0.694060 1.000000 0.005253
1.000000 1.000000 0.005253
1.000000 1.000000 0.005253
1.000000 1.000000 0.005253
0.000000 1.000000 0.005253
0.004548 1.000000 0.005253
0.032665 1.000000 0.005253
0.187392 1.000000 0.005253
0.694060 1.000000 0.005253
1.000000 1.000000 0.005253
1.000000 1.000000 0.005253
1.000000 1.000000 0.005253
0.000000 1.000000 0.005253
0.004548 1.000000 0.005253
0.032665 1.000000 0.005253
0.187392 1.000000 0.005253
0.694060 1.000000 0.005253
1.000000 1.000000 0.005253
1.000000 1.000000 0.005253
1.000000 1.000000 0.005253
0.000000 0.000000 0.038390
0.004548 0.000000 0.038390
0.032665 0.000000 0.038390
0.187392 0.000000 0.038390
0.694060 0.000000 0.038390
1.000000 0.000000 0.038390
1.000000 0.000000 0.038390
1.000000 0.000000 0.038390
0.000000 0.005208 0.038390
0.004548 0.005208 0.038390
0.032665 0.005208 0.038390
0.187392 0.005208 0.038390
0.694060 0.005208 0.038390
1.000000 0.005208 0.038390
1.000000 0.005208 0.038390
1.000000 0.005208 0.038390
0.000000 0.038015 0.038390
0.004548 0.038015 0.038390
0.032665 0.038015 0.038390
0.187392 0.038015 0.038390
0.694060 0.038015 0.038390
1.000000 0.038015 0.038390
1.000000 0.038015 0.038390
1.000000 0.038015 0.038390
0.000000 0.224231 0.038390
0.004548 0.224231 0.038390
0.032665 0.224231 0.038390
0.187392 0.224231 0.038390
0.694060 0.224231 0.038390
1.000000 0.224231 0.038390
1.000000 0.224231 0.038390
1.000000 0.224231 0.038390
0.000000 0.719780 0.038390
0.004548 0.719780 0.038390
0.032665 0.719780 0.038390
0.187392 0.719780 0.038390
0.694060 0.719780 0.038390
1.000000 0.719780 0.038390
1.000000 0.719780 0.038390
1.000000 0.719780 0.038390
0.000000 1.000000 0.038390
0.004548 1.000000 0.038390
0.032665 1.000000 0.038390
0.187392 1.000000 0.038390
0.694060 1.000000 0.038390
1.000000 1.000000 0.038390
1.000000 1.000000 0.038390
1.000000 1.000000 0.038390
0.000000 1.000000 0.038390
0.004548 1.000000 0.038390
0.032665 1.000000 0.038390
0.187392 1.000000 0.038390
0.694060 1.000000 0.038390
1.000000 1.000000 0.038390
1.000000 1.000000 0.038390
1.000000 1.000000 0.038390
0.000000 1.000000 0.038390
0.004548 1.000000 0.038390
0.032665 1.000000 0.038390
0.187392 1.000000 0.038390
0.694060 1.000000 0.038390
1.000000 1.000000 0.038390
1.000000 1.000000 0.038390
1.000000 1.000000 0.038390
0.000000 0.000000 0.226929
0.004548 0.000000 0.226929
0.032665 0.000000 0.226929
0.187392 0.000000 0.226929
0.694060 0.000000 0.226929
1.000000 0.000000 0.226929
1.000000 0.000000 0.226929
1.000000 0.000000 0.226929
0.000000 0.005208 0.226929
0.004548 0.005208 0.226929
0.032665 0.005208 0.226929
0.187392 0.005208 0.226929
0.694060 0.005208 0.226929
1.000000 0.005208 0.226929
1.000000 0.005208 0.226929
1.000000 0.005208 0.226929
0.000000 0.038015 0.226929
0.004548 0.038015 0.226929
0.032665 0.038015 0.226929
0.187392 0.038015 0.226929
0.694060 0.038015 0.226929
1.000000 0.038015 0.226929
1.000000 0.038015 0.226929
1.000000 0.038015 0.226929
0.000000 0.224231 0.226929
0.004548 0.224231 0.226929
0.032665 0.224231 0.226929
0.187392 0.224231 0.226929
0.694060 0.224231 0.226929
1.000000 0.224231 0.226929
1.000000 0.224231 0.226929
1.000000 0.224231 0.226929
0.000000 0.719780 0.226929
0.004548 0.719780 0.226929
0.032665 0.719780 0.226929
0.187392 0.719780 0.226929
0.694060 0.719780 0.226929
1.000000 0.719780 0.226929
1.000000 0.719780 0.226929
1.000000 0.719780 0.226929
0.000000 1.000000 0.226929
0.004548 1.000000 0.226929
0.032665 1.000000 0.226929
0.187392 1.000000 0.226929
0.694060 1.000000 0.226929
1.000000 1.000000 0.226929
1.000000 1.000000 0.226929
1.000000 1.000000 0.226929
0.000000 1.000000 0.226929
0.004548 1.000000 0.226929
0.032665 1.000000 0.226929
0.187392 1.000000 0.226929
0.694060 1.000000 0.226929
1.000000 1.000000 0.226929
1.000000 1.000000 0.226929
1.000000 1.000000 0.226929
0.000000 1.000000 0.226929
0.004548 1.000000 0.226929
0.032665 1.000000 0.226929
0.187392 1.000000 0.226929
0.694060 1.000000 0.226929
1.000000 1.000000 0.226929
1.000000 1.000000 0.226929
1.000000 1.000000 0.226929
0.000000 0.000000 0.721937
0.004548 0.000000 0.721937
0.032665 0.000000 0.721937
0.187392 0.000000 0.721937
0.694060 0.000000 0.721937
1.000000 0.000000 0.721937
1.000000 0.000000 0.721937
1.000000 0.000000 0.721937
0.000000 0.005208 0.721937
0.004548 0.005208 0.721937
0.032665 0.005208 0.721937
0.187392 0.005208 0.721937
0.694060 0.005208 0.721937
1.000000 0.005208 0.721937
1.000000 0.005208 0.721937
1.000000 0.005208 0.721937
0.000000 0.038015 0.721937
0.004548 0.038015 0.721937
0.032665 0.038015 0.721937
0.187392 0.038015 0.721937
0.694060 0.038015 0.721937
1.000000 0.038015 0.721937
1.000000 0.038015 0.721937
1.000000 0.038015 0.721937
0.000000 0.224231 0.721937
0.004548 0.224231 0.721937
0.032665 0.224231 0.721937
0.187392 0.224231 0.721937
0.694060 0.224231 0.721937
1.000000 0.224231 0.721937
1.000000 0.224231 0.721937
1.000000 0.224231 0.721937
0.000000 0.719780 0.721937
0.004548 0.719780 0.721937
0.032665 0.719780 0.721937
0.187392 0.719780 0.721937
0.694060 0.719780 0.721937
1.000000 0.719780 0.721937
1.000000 0.719780 0.721937
1.000000 0.719780 0.721937
0.000000 1.000000 0.721937
0.004548 1.000000 0.721937
0.032665 1.000000 0.721937
0.187392 1.000000 0.721937
0.694060 1.000000 0.721937
1.000000 1.000000 0.721937
1.000000 1.000000 0.721937
1.000000 1.000000 0.721937
0.000000 1.000000 0.721937
0.004548 1.000000 0.721937
0.032665 1.000000 0.721937
0.187392 1.000000 0.721937
0.694060 1.000000 0.721937
1.000000 1.000000 0.721937
1.000000 1.000000 0.721937
1.000000 1.000000 0.721937
0.000000 1.000000 0.721937
0.004548 1.000000 0.721937
0.032665 1.000000 0.721937
0.187392 1.000000 0.721937
0.694060 1.000000 0.721937
1.000000 1.000000 0.721937
1.000000 1.000000 0.721937
1.000000 1.000000 0.721937
0.000000 0.000000 1.000000
0.004548 0.000000 1.000000
0.032665 0.000000 1.000000
0.187392 0.000000 1.000000
0.694060 0.000000 1.000000
1.000000 0.000000 1.000000
1.000000 0.000000 1.000000
1.000000 0.000000 1.000000
0.000000 0.005208 1.000000
0.004548 0.005208 1.000000
0.032665 0.005208 1.000000
0.187392 0.005208 1.000000
0.694060 0.005208 1.000000
1.000000 0.005208 1.000000
1.000000 0.005208 1.000000
1.000000 0.005208 1.000000
0.000000 0.038015 1.000000
0.004548 0.038015 1.000000
0.032665 0.038015 1.000000
0.187392 0.038015 1.000000
0.694060 0.038015 1.000000
1.000000 0.038015 1.000000
1.000000 0.038015 1.000000
1.000000 0.038015 1.000000
0.000000 0.224231 1.000000
0.004548 0.224231 1.000000
0.032665 0.224231 1.000000
0.187392 0.224231 1.000000
0.694060 0.224231 1.000000
1.000000 0.224231 1.000000
1.000000 0.224231 1.000000
1.000000 0.224231 1.000000
0.000000 0.719780 1.000000
0.004548 0.719780 1.000000
0.032665 0.719780 1.000000
0.187392 0.719780 1.000000
0.694060 0.719780 1.000000
1.000000 0.719780 1.000000
1.000000 0.719780 1.000000
1.000000 0.719780 1.000000
0.000000 1.000000 1.000000
0.004548 1.000000 1.000000
0.032665 1.000000 1.000000
0.187392 1.000000 1.000000
0.694060 1.000000 1.000000
1.000000 1.000000 1.000000
1.000000 1.000000 1.000000
1.000000 1.000000 1.000000
0.000000 1.000000 1.000000
0.004548 1.000000 1.000000
0.032665 1.000000 1.000000
0.187392 1.000000 1.000000
0.694060 1.000000 1.000000
1.000000 1.000000 1.000000
1.000000 1.000000 1.000000
1.000000 1.000000 1.000000
0.000000 1.000000 1.000000
0.004548 1.000000 1.000000
0.032665 1.000000 1.000000
0.187392 1.000000 1.000000
0.694060 1.000000 1.000000
1.000000 1.000000 1.000000
1.000000 1.000000 1.000000
1.000000 1.000000 1.000000
0.000000 0.000000 1.000000
0.004548 0.000000 1.000000
0.032665 0.000000 1.000000
0.187392 0.000000 1.000000
0.694060 0.000000 1.000000
1.000000 0.000000 1.000000
1.000000 0.000000 1.000000
1.000000 0.000000 1.000000
0.000000 0.005208 1.000000
0.004548 0.005208 1.000000
0.032665 0.005208 1.000000
0.187392 0.005208 1.000000
0.694060 0.005208 1.000000
1.000000 0.005208 1.000000
1.000000 0.005208 1.000000
1.000000 0.005208 1.000000
0.000000 0.038015 1.000000
0.004548 0.038015 1.000000
0.032665 0.038015 1.000000
0.187392 0.038015 1.000000
0.694060 0.038015 1.000000
1.000000 0.038015 1.000000
1.000000 0.038015 1.000000
1.000000 0.038015 1.000000
0.000000 0.224231 1.000000
0.004548 0.224231 1.000000
0.032665 0.224231 1.000000
0.187392 0.224231 1.000000
0.694060 0.224231 1.000000
1.000000 0.224231 1.000000
1.000000 0.224231 1.000000
1.000000 0.224231 1.000000
0.000000 0.719780 1.000000
0.004548 0.719780 1.000000
0.032665 0.719780 1.000000
0.187392 0.719780 1.000000
0.694060 0.719780 1.000000
1.000000 0.719780 1.000000
1.000000 0.719780 1.000000
1.000000 0.719780 1.000000
0.000000 1.000000 1.000000
0.004548 1.000000 1.000000
0.032665 1.000000 1.000000
0.187392 1.000000 1.000000
0.694060 1.000000 1.000000
1.000000 1.000000 1.000000
1.000000 1.000000 1.000000
1.000000 1.000000 1.000000
0.000000 1.000000 1.000000
0.004548 1.000000 1.000000
0.032665 1.000000 1.000000
0.187392 1.000000 1.000000
0.694060 1.000000 1.000000
1.000000 1.000000 1.000000
1.000000 1.000000 1.000000
1.000000 1.000000 1.000000
0.000000 1.000000 1.000000
0.004548 1.000000 1.000000
0.032665 1.000000 1.000000
0.187392 1.000000 1.000000
0.694060 1.000000 1.000000
1.000000 1.000000 1.000000
1.000000 1.000000 1.000000
1.000000 1.000000 1.000000
0.000000 0.000000 1.000000
0.004548 0.000000 1.000000
0.032665 0.000000 1.000000
0.187392 0.000000 1.000000
0.694060 0.000000 1.000000
1.000000 0.000000 1.000000
1.000000 0.000000 1.000000
1.000000 0.000000 1.000000
0.000000 0.005208 1.000000
0.004548 0.005208 1.000000
0.032665 0.005208 1.000000
0.187392 0.005208 1.000000
0.694060 0.005208 1.000000
1.000000 0.005208 1.000000
1.000000 0.005208 1.000000
1.000000 0.005208 1.000000
0.000000 0.038015 1.000000
0.004548 0.038015 1.000000
0.032665 0.038015 1.000000
0.187392 0.038015 1.000000
0.694060 0.038015 1.000000
1.000000 0.038015 1.000000
1.000000 0.038015 1.000000
1.000000 0.038015 1.000000
0.000000 0.224231 1.000000
0.004548 0.224231 1.000000
0.032665 0.224231 1.000000
0.187392 0.224231 1.000000
0.694060 0.224231 1.000000
1.000000 0.224231 1.000000
1.000000 0.224231 1.000000
1.000000 0.224231 1.000000
0.000000 0.719780 1.000000
0.004548 0.719780 1.000000
0.032665 0.719780 1.000000
0.187392 0.719780 1.000000
0.694060 0.719780 1.000000
1.000000 0.719780 1.000000
1.000000 0.719780 1.000000
1.000000 0.719780 1.000000
0.000000 1.000000 1.000000
0.004548 1.000000 1.000000
0.032665 1.000000 1.000000
0.187392 1.000000 1.000000
0.694060 1.000000 1.000000
1.000000 1.000000 1.000000
1.000000 1.000000 1.000000
1.000000 1.000000 1.000000
0.000000 1.000000 1.000000
0.004548 1.000000 1.000000
0.032665 1.000000 1.000000
0.187392 1.000000 1.000000
0.694060 1.000000 1.000000
1.000000 1.000000 1.000000
1.000000 1.000000 1.000000
1.000000 1.000000 1.000000
0.000000 1.000000 1.000000
0.004548 1.000000 1.000000
0.032665 1.000000 1.000000
0.187392 1.000000 1.000000
0.694060 1.000000 1.000000
1.000000 1.000000 1.000000
1.000000 1.000000 1.000000
1.000000 1.000000 1.000000
