Assets/Scene/Kotenbu/Frame.CUBE
#Created by: Adobe Photoshop Export Color Lookup Plugin
TITLE "Frame.psd"
#LUT size
LUT_3D_SIZE 32
#data domain
DOMAIN_MIN 0.0 0.0 0.0
DOMAIN_MAX 1.0 1.0 1.0
#LUT data points
0.000000 0.000000 0.000000
0.000000 0.000000 0.000000
0.000000 0.000000 0.000000
0.000673 0.000000 0.000000
0.004548 0.000000 0.000000
0.009110 0.000000 0.000000
0.014537 0.000000 0.000000
0.021814 0.000000 0.000000
0.032665 0.000000 0.000000
0.049365 0.000000 0.000000
0.076343 0.000000 0.000000
0.119370 0.000000 0.000000
0.187392 0.000000 0.000000
0.288441 0.000000 0.000000
0.423006 0.000000 0.000000
0.566445 0.000000 0.000000
0.694060 0.000000 0.000000
0.839041 0.000000 0.000000
1.000000 0.000000 0.000000
1.000000 0.000000 0.000000
1.000000 0.000000 0.000000
1.000000 0.000000 0.000000
1.000000 0.000000 0.000000
1.000000 0.000000 0.000000
1.000000 0.000000 0.000000
1.000000 0.000000 0.000000
1.000000 0.000000 0.000000
1.000000 0.000000 0.000000
1.000000 0.000000 0.000000
1.000000 0.000000 0.000000
1.000000 0.000000 0.000000
1.000000 0.000000 0.000000
0.000000 0.000000 0.000000
0.000000 0.000000 0.000000
0.000000 0.000000 0.000000
0.000673 0.000000 0.000000
0.004548 0.000000 0.000000
0.009110 0.000000 0.000000
0.014537 0.000000 0.000000
0.021814 0.000000 0.000000
0.032665 0.000000 0.000000
0.049365 0.000000 0.000000
0.076343 0.000000 0.000000
0.119370 0.000000 0.000000
0.187392 0.000000 0.000000
0.288441 0.000000 0.000000
0.423006 0.000000 0.000000
0.566445 0.000000 0.000000
0.694060 0.000000 0.000000
0.839041 0.000000 0.000000
1.000000 0.000000 0.000000
1.000000 0.000000 0.000000
1.000000 0.000000 0.000000
1.000000 0.000000 0.000000
1.000000 0.000000 0.000000
1.000000 0.000000 0.000000
1.000000 0.000000 0.000000
1.000000 0.000000 0.000000
1.000000 0.000000 0.000000
1.000000 0.000000 0.000000
1.000000 0.000000 0.000000
1.000000 0.000000 0.000000
1.000000 0.000000 0.000000
1.000000 0.000000 0.000000
0.000000 0.000000 0.000000
0.000000 0.000000 0.000000
0.000000 0.000000 0.000000
0.000673 0.000000 0.000000
0.004548 0.000000 0.000000
0.009110 0.000000 0.000000
0.014537 0.000000 0.000000
0.021814 0.000000 0.000000
0.032665 0.000000 0.000000
0.049365 0.000000 0.000000
0.076343 0.000000 0.000000
0.119370 0.000000 0.000000
0.187392 0.000000 0.000000
0.288441 0.000000 0.000000
0.423006 0.000000 0.000000
0.566445 0.000000 0.000000
0.694060 0.000000 0.000000
0.839041 0.000000 0.000000
1.000000 0.000000 0.000000
1.000000 0.000000 0.000000
1.000000 0.000000 0.000000
1.000000 0.000000 0.000000
1.000000 0.000000 0.000000
1.000000 0.000000 0.000000
1.000000 0.000000 0.000000
1.000000 0.000000 0.000000
1.000000 0.000000 0.000000
1.000000 0.000000 0.000000
1.000000 0.000000 0.000000
1.000000 0.000000 0.000000
1.000000 0.000000 0.000000
1.000000 0.000000 0.000000
0.000000 0.000770 0.000000
0.000000 0.000770 0.000000
0.000000 0.000770 0.000000
0.000673 0.000770 0.000000
0.004548 0.000770 0.000000
0.009110 0.000770 0.000000
0.014537 0.000770 0.000000
0.021814 0.000770 0.000000
0.032665 0.000770 0.000000
0.049365 0.000770 0.000000
0.076343 0.000770 0.000000
0.119370 0.000770 0.000000
0.187392 0.000770 0.000000
0.288441 0.000770 0.000000
0.423006 0.000770 0.000000
0.566445 0.000770 0.000000
0.694060 0.000770 0.000000
0.839041 0.000770 0.000000
1.000000 0.000770 0.000000
1.000000 0.000770 0.000000
1.000000 0.000770 0.000000
1.000000 0.000770 0.000000
1.000000 0.000770 0.000000
1.000000 0.000770 0.000000
1.000000 0.000770 0.000000
1.000000 0.000770 0.000000
1.000000 0.000770 0.000000
1.000000 0.000770 0.000000
1.000000 0.000770 0.000000
1.000000 0.000770 0.000000
1.000000 0.000770 0.000000
1.000000 0.000770 0.000000
0.000000 0.005208 0.000000
0.000000 0.005208 0.000000
0.000000 0.005208 0.000000
0.000673 0.005208 0.000000
0.004548 0.005208 0.000000
0.009110 0.005208 0.000000
0.014537 0.005208 0.000000
0.021814 0.005208 0.000000
0.032665 0.005208 0.000000
0.049365 0.005208 0.000000
0.076343 0.005208 0.000000
0.119370 0.005208 0.000000
0.187392 0.005208 0.000000
0.288441 0.005208 0.000000
0.423006 0.005208 0.000000
0.566445 0.005208 0.000000
0.694060 0.005208 0.000000
0.839041 0.005208 0.000000
1.000000 0.005208 0.000000
1.000000 0.005208 0.000000
1.000000 0.005208 0.000000
1.000000 0.005208 0.000000
1.000000 0.005208 0.000000
1.000000 0.005208 0.000000
1.000000 0.005208 0.000000
1.000000 0.005208 0.000000
1.000000 0.005208 0.000000
1.000000 0.005208 0.000000
1.000000 0.005208 0.000000
1.000000 0.005208 0.000000
1.000000 0.005208 0.000000
1.000000 0.005208 0.000000
0.000000 0.010444 0.000000
0.000000 0.010444 0.000000
0.000000 0.010444 0.000000
0.000673 0.010444 0.000000
0.004548 0.010444 0.000000
0.009110 0.010444 0.000000
0.014537 0.010444 0.000000
0.021814 0.010444 0.000000
0.032665 0.010444 0.000000
0.049365 0.010444 0.000000
0.076343 0.010444 0.000000
0.119370 0.010444 0.000000
0.187392 0.010444 0.000000
0.288441 0.010444 0.000000
0.423006 0.010444 0.000000
0.566445 0.010444 0.000000
0.694060 0.010444 0.000000
0.839041 0.010444 0.000000
1.000000 0.010444 0.000000
1.000000 0.010444 0.000000
1.000000 0.010444 0.000000
1.000000 0.010444 0.000000
1.000000 0.010444 0.000000
1.000000 0.010444 0.000000
1.000000 0.010444 0.000000
1.000000 0.010444 0.000000
1.000000 0.010444 0.000000
1.000000 0.010444 0.000000
1.000000 0.010444 0.000000
1.000000 0.010444 0.000000
1.000000 0.010444 0.000000
1.000000 0.010444 0.000000
0.000000 0.016704 0.000000
0.000000 0.016704 0.000000
0.000000 0.016704 0.000000
0.000673 0.016704 0.000000
0.004548 0.016704 0.000000
0.009110 0.016704 0.000000
0.014537 0.016704 0.000000
0.021814 0.016704 0.000000
0.032665 0.016704 0.000000
0.049365 0.016704 0.000000
0.076343 0.016704 0.000000
0.119370 0.016704 0.000000
0.187392 0.016704 0.000000
0.288441 0.016704 0.000000
0.423006 0.016704 0.000000
0.566445 0.016704 0.000000
0.694060 0.016704 0.000000
0.839041 0.016704 0.000000
1.000000 0.016704 0.000000
1.000000 0.016704 0.000000
1.000000 0.016704 0.000000
1.000000 0.016704 0.000000
1.000000 0.016704 0.000000
1.000000 0.016704 0.000000
1.000000 0.016704 0.000000
1.000000 0.016704 0.000000
1.000000 0.016704 0.000000
1.000000 0.016704 0.000000
1.000000 0.016704 0.000000
1.000000 0.016704 0.000000
1.000000 0.016704 0.000000
1.000000 0.016704 0.000000
0.000000 0.025174 0.000000
0.000000 0.025174 0.000000
0.000000 0.025174 0.000000
0.000673 0.025174 0.000000
0.004548 0.025174 0.000000
0.009110 0.025174 0.000000
0.014537 0.025174 0.000000
0.021814 0.025174 0.000000
0.032665 0.025174 0.000000
0.049365 0.025174 0.000000
0.076343 0.025174 0.000000
0.119370 0.025174 0.000000
0.187392 0.025174 0.000000
0.288441 0.025174 0.000000
0.423006 0.025174 0.000000
0.566445 0.025174 0.000000
0.694060 0.025174 0.000000
0.839041 0.025174 0.000000
1.000000 0.025174 0.000000
1.000000 0.025174 0.000000
1.000000 0.025174 0.000000
1.000000 0.025174 0.000000
1.000000 0.025174 0.000000
1.000000 0.025174 0.000000
1.000000 0.025174 0.000000
1.000000 0.025174 0.000000
1.000000 0.025174 0.000000
1.000000 0.025174 0.000000
1.000000 0.025174 0.000000
1.000000 0.025174 0.000000
1.000000 0.025174 0.000000
1.000000 0.025174 0.000000
0.000000 0.038015 0.000000
0.000000 0.038015 0.000000
0.000000 0.038015 0.000000
0.000673 0.038015 0.000000
0.004548 0.038015 0.000000
0.009110 0.038015 0.000000
0.014537 0.038015 0.000000
0.021814 0.038015 0.000000
0.032665 0.038015 0.000000
0.049365 0.038015 0.000000
0.076343 0.038015 0.000000
0.119370 0.038015 0.000000
0.187392 0.038015 0.000000
0.288441 0.038015 0.000000
0.423006 0.038015 0.000000
0.566445 0.038015 0.000000
0.694060 0.038015 0.000000
0.839041 0.038015 0.000000
1.000000 0.038015 0.000000
1.000000 0.038015 0.000000
1.000000 0.038015 0.000000
1.000000 0.038015 0.000000
1.000000 0.038015 0.000000
1.000000 0.038015 0.000000
1.000000 0.038015 0.000000
1.000000 0.038015 0.000000
1.000000 0.038015 0.000000
1.000000 0.038015 0.000000
1.000000 0.038015 0.000000
1.000000 0.038015 0.000000
1.000000 0.038015 0.000000
1.000000 0.038015 0.000000
0.000000 0.058302 0.000000
0.000000 0.058302 0.000000
0.000000 0.058302 0.000000
0.000673 0.058302 0.000000
0.004548 0.058302 0.000000
0.009110 0.058302 0.000000
0.014537 0.058302 0.000000
0.021814 0.058302 0.000000
0.032665 0.058302 0.000000
0.049365 0.058302 0.000000
0.076343 0.058302 0.000000
0.119370 0.058302 0.000000
0.187392 0.058302 0.000000
0.288441 0.058302 0.000000
0.423006 0.058302 0.000000
0.566445 0.058302 0.000000
0.694060 0.058302 0.000000
0.839041 0.058302 0.000000
1.000000 0.058302 0.000000
1.000000 0.058302 0.000000
1.000000 0.058302 0.000000
1.000000 0.058302 0.000000
1.000000 0.058302 0.000000
1.000000 0.058302 0.000000
1.000000 0.058302 0.000000
1.000000 0.058302 0.000000
1.000000 0.058302 0.000000
1.000000 0.058302 0.000000
1.000000 0.058302 0.000000
1.000000 0.058302 0.000000
1.000000 0.058302 0.000000
1.000000 0.058302 0.000000
0.000000 0.091388 0.000000
0.000000 0.091388 0.000000
0.000000 0.091388 0.000000
0.000673 0.091388 0.000000
0.004548 0.091388 0.000000
0.009110 0.091388 0.000000
0.014537 0.091388 0.000000
0.021814 0.091388 0.000000
0.032665 0.091388 0.000000
0.049365 0.091388 0.000000
0.076343 0.091388 0.000000
0.119370 0.091388 0.000000
0.187392 0.091388 0.000000
0.288441 0.091388 0.000000
0.423006 0.091388 0.000000
0.566445 0.091388 0.000000
0.694060 0.091388 0.000000
0.839041 0.091388 0.000000
1.000000 0.091388 0.000000
1.000000 0.091388 0.000000
1.000000 0.091388 0.000000
1.000000 0.091388 0.000000
1.000000 0.091388 0.000000
1.000000 0.091388 0.000000
1.000000 0.091388 0.000000
1.000000 0.091388 0.000000
1.000000 0.091388 0.000000
1.000000 0.091388 0.000000
1.000000 0.091388 0.000000
1.000000 0.091388 0.000000
1.000000 0.091388 0.000000
1.000000 0.091388 0.000000
0.000000 0.143621 0.000000
0.000000 0.143621 0.000000
0.000000 0.143621 0.000000
0.000673 0.143621 0.000000
0.004548 0.143621 0.000000
0.009110 0.143621 0.000000
0.014537 0.143621 0.000000
0.021814 0.143621 0.000000
0.032665 0.143621 0.000000
0.049365 0.143621 0.000000
0.076343 0.143621 0.000000
0.119370 0.143621 0.000000
0.187392 0.143621 0.000000
0.288441 0.143621 0.000000
0.423006 0.143621 0.000000
0.566445 0.143621 0.000000
0.694060 0.143621 0.000000
0.839041 0.143621 0.000000
1.000000 0.143621 0.000000
1.000000 0.143621 0.000000
1.000000 0.143621 0.000000
1.000000 0.143621 0.000000
1.000000 0.143621 0.000000
1.000000 0.143621 0.000000
1.000000 0.143621 0.000000
1.000000 0.143621 0.000000
1.000000 0.143621 0.000000
1.000000 0.143621 0.000000
1.000000 0.143621 0.000000
1.000000 0.143621 0.000000
1.000000 0.143621 0.000000
1.000000 0.143621 0.000000
0.000000 0.224231 0.000000
0.000000 0.224231 0.000000
0.000000 0.224231 0.000000
0.000673 0.224231 0.000000
0.004548 0.224231 0.000000
0.009110 0.224231 0.000000
0.014537 0.224231 0.000000
0.021814 0.224231 0.000000
0.032665 0.224231 0.000000
0.049365 0.224231 0.000000
0.076343 0.224231 0.000000
0.119370 0.224231 0.000000
0.187392 0.224231 0.000000
0.288441 0.224231 0.000000
0.423006 0.224231 0.000000
0.566445 0.224231 0.000000
0.694060 0.224231 0.000000
0.839041 0.224231 0.000000
1.000000 0.224231 0.000000
1.000000 0.224231 0.000000
1.000000 0.224231 0.000000
1.000000 0.224231 0.000000
1.000000 0.224231 0.000000
1.000000 0.224231 0.000000
1.000000 0.224231 0.000000
1.000000 0.224231 0.000000
1.000000 0.224231 0.000000
1.000000 0.224231 0.000000
1.000000 0.224231 0.000000
1.000000 0.224231 0.000000
1.000000 0.224231 0.000000
1.000000 0.224231 0.000000
0.000000 0.338313 0.000000
0.000000 0.338313 0.000000
0.000000 0.338313 0.000000
0.000673 0.338313 0.000000
0.004548 0.338313 0.000000
0.009110 0.338313 0.000000
0.014537 0.338313 0.000000
0.021814 0.338313 0.000000
0.032665 0.338313 0.000000
0.049365 0.338313 0.000000
0.076343 0.338313 0.000000
0.119370 0.338313 0.000000
0.187392 0.338313 0.000000
0.288441 0.338313 0.000000
0.423006 0.338313 0.000000
0.566445 0.338313 0.000000
0.694060 0.338313 0.000000
0.839041 0.338313 0.000000
1.000000 0.338313 0.000000
1.000000 0.338313 0.000000
1.000000 0.338313 0.000000
1.000000 0.338313 0.000000
1.000000 0.338313 0.000000
1.000000 0.338313 0.000000
1.000000 0.338313 0.000000
1.000000 0.338313 0.000000
1.000000 0.338313 0.000000
1.000000 0.338313 0.000000
1.000000 0.338313 0.000000
1.000000 0.338313 0.000000
1.000000 0.338313 0.000000
1.000000 0.338313 0.000000
0.000000 0.476360 0.000000
0.000000 0.476360 0.000000
0.000000 0.476360 0.000000
0.000673 0.476360 0.000000
0.004548 0.476360 0.000000
0.009110 0.476360 0.000000
0.014537 0.476360 0.000000
0.021814 0.476360 0.000000
0.032665 0.476360 0.000000
0.049365 0.476360 0.000000
0.076343 0.476360 0.000000
0.119370 0.476360 0.000000
0.187392 0.476360 0.000000
0.288441 0.476360 0.000000
0.423006 0.476360 0.000000
0.566445 0.476360 0.000000
0.694060 0.476360 0.000000
0.839041 0.476360 0.000000
1.000000 0.476360 0.000000
1.000000 0.476360 0.000000
1.000000 0.476360 0.000000
1.000000 0.476360 0.000000
1.000000 0.476360 0.000000
1.000000 0.476360 0.000000
1.000000 0.476360 0.000000
1.000000 0.476360 0.000000
1.000000 0.476360 0.000000
1.000000 0.476360 0.000000
1.000000 0.476360 0.000000
1.000000 0.476360 0.000000
1.000000 0.476360 0.000000
1.000000 0.476360 0.000000
0.000000 0.606229 0.000000
0.000000 0.606229 0.000000
0.000000 0.606229 0.000000
0.000673 0.606229 0.000000
0.004548 0.606229 0.000000
0.009110 0.606229 0.000000
0.014537 0.606229 0.000000
0.021814 0.606229 0.000000
0.032665 0.606229 0.000000
0.049365 0.606229 0.000000
0.076343 0.606229 0.000000
0.119370 0.606229 0.000000
0.187392 0.606229 0.000000
0.288441 0.606229 0.000000
0.423006 0.606229 0.000000
0.566445 0.606229 0.000000
0.694060 0.606229 0.000000
0.839041 0.606229 0.000000
1.000000 0.606229 0.000000
1.000000 0.606229 0.000000
1.000000 0.606229 0.000000
1.000000 0.606229 0.000000
1.000000 0.606229 0.000000
1.000000 0.606229 0.000000
1.000000 0.606229 0.000000
1.000000 0.606229 0.000000
1.000000 0.606229 0.000000
1.000000 0.606229 0.000000
1.000000 0.606229 0.000000
1.000000 0.606229 0.000000
1.000000 0.606229 0.000000
1.000000 0.606229 0.000000
0.000000 0.719780 0.000000
0.000000 0.719780 0.000000
0.000000 0.719780 0.000000
0.000673 0.719780 0.000000
0.004548 0.719780 0.000000
0.009110 0.719780 0.000000
0.014537 0.719780 0.000000
0.021814 0.719780 0.000000
0.032665 0.719780 0.000000
0.049365 0.719780 0.000000
0.076343 0.719780 0.000000
0.119370 0.719780 0.000000
0.187392 0.719780 0.000000
0.288441 0.719780 0.000000
0.423006 0.719780 0.000000
0.566445 0.719780 0.000000
0.694060 0.719780 0.000000
0.839041 0.719780 0.000000
1.000000 0.719780 0.000000
1.000000 0.719780 0.000000
1.000000 0.719780 0.000000
1.000000 0.719780 0.000000
1.000000 0.719780 0.000000
1.000000 0.719780 0.000000
1.000000 0.719780 0.000000
1.000000 0.719780 0.000000
1.000000 0.719780 0.000000
1.000000 0.719780 0.000000
1.000000 0.719780 0.000000
1.000000 0.719780 0.000000
1.000000 0.719780 0.000000
1.000000 0.719780 0.000000
0.000000 0.854166 0.000000
0.000000 0.854166 0.000000
0.000000 0.854166 0.000000
0.000673 0.854166 0.000000
0.004548 0.854166 0.000000
0.009110 0.854166 0.000000
0.014537 0.854166 0.000000
0.021814 0.854166 0.000000
0.032665 0.854166 0.000000
0.049365 0.854166 0.000000
0.076343 0.854166 0.000000
0.119370 0.854166 0.000000
0.187392 0.854166 0.000000
0.288441 0.854166 0.000000
0.423006 0.854166 0.000000
0.566445 0.854166 0.000000
0.694060 0.854166 0.000000
0.839041 0.854166 0.000000
1.000000 0.854166 0.000000
1.000000 0.854166 0.000000
1.000000 0.854166 0.000000
1.000000 0.854166 0.000000
1.000000 0.854166 0.000000
1.000000 0.854166 0.000000
1.000000 0.854166 0.000000
1.000000 0.854166 0.000000
1.000000 0.854166 0.000000
1.000000 0.854166 0.000000
1.000000 0.854166 0.000000
1.000000 0.854166 0.000000
1.000000 0.854166 0.000000
1.000000 0.854166 0.000000
0.000000 1.000000 0.000000
0.000000 1.000000 0.000000
0.000000 1.000000 0.000000
0.000673 1.000000 0.000000
0.004548 1.000000 0.000000
0.009110 1.000000 0.000000
0.014537 1.000000 0.000000
0.021814 1.000000 0.000000
0.032665 1.000000 0.000000
0.049365 1.000000 0.000000
0.076343 1.000000 0.000000
0.119370 1.000000 0.000000
0.187392 1.000000 0.000000
0.288441 1.000000 0.000000
0.423006 1.000000 0.000000
0.566445 1.000000 0.000000
0.694060 1.000000 0.000000
0.839041 1.000000 0.000000
1.000000 1.000000 0.000000
1.000000 1.000000 0.000000
1.000000 1.000000 0.000000
1.000000 1.000000 0.000000
1.000000 1.000000 0.000000
1.000000 1.000000 0.000000
1.000000 1.000000 0.000000
1.000000 1.000000 0.000000
1.000000 1.000000 0.000000
1.000000 1.000000 0.000000
1.000000 1.000000 0.000000
1.000000 1.000000 0.000000
1.000000 1.000000 0.000000
1.000000 1.000000 0.000000
0.000000 1.000000 0.000000
0.000000 1.000000 0.000000
0.000000 1.000000 0.000000
0.000673 1.000000 0.000000
0.004548 1.000000 0.000000
0.009110 1.000000 0.000000
0.014537 1.000000 0.000000
0.021814 1.000000 0.000000
0.032665 1.000000 0.000000
0.049365 1.000000 0.000000
0.076343 1.000000 0.000000
0.119370 1.000000 0.000000
0.187392 1.000000 0.000000
0.288441 1.000000 0.000000
0.423006 1.000000 0.000000
0.566445 1.000000 0.000000
0.694060 1.000000 0.000000
0.839041 1.000000 0.000000
1.000000 1.000000 0.000000
1.000000 1.000000 0.000000
1.000000 1.000000 0.000000
1.000000 1.000000 0.000000
1.000000 1.000000 0.000000
1.000000 1.000000 0.000000
1.000000 1.000000 0.000000
1.000000 1.000000 0.000000
1.000000 1.000000 0.000000
1.000000 1.000000 0.000000
1.000000 1.000000 0.000000
1.000000 1.000000 0.000000
1.000000 1.000000 0.000000
1.000000 1.000000 0.000000
0.000000 1.000000 0.000000
0.000000 1.000000 0.000000
0.000000 1.000000 0.000000
0.000673 1.000000 0.000000
0.004548 1.000000 0.000000
0.009110 1.000000 0.000000
0.014537 1.000000 0.000000
0.021814 1.000000 0.000000
0.032665 1.000000 0.000000
0.049365 1.000000 0.000000
0.076343 1.000000 0.000000
0.119370 1.000000 0.000000
0.187392 1.000000 0.000000
0.288441 1.000000 0.000000
0.423006 1.000000 0.000000
0.566445 1.000000 0.000000
0.694060 1.000000 0.000000
0.839041 1.000000 0.000000
1.000000 1.000000 0.000000
1.000000 1.000000 0.000000
1.000000 1.000000 0.000000
1.000000 1.000000 0.000000
1.000000 1.000000 0.000000
1.000000 1.000000 0.000000
1.000000 1.000000 0.000000
1.000000 1.000000 0.000000
1.000000 1.000000 0.000000
1.000000 1.000000 0.000000
1.000000 1.000000 0.000000
1.000000 1.000000 0.000000
1.000000 1.000000 0.000000
1.000000 1.000000 0.000000
0.000000 1.000000 0.000000
0.000000 1.000000 0.000000
0.000000 1.000000 0.000000
0.000673 1.000000 0.000000
0.004548 1.000000 0.000000
0.009110 1.000000 0.000000
0.014537 1.000000 0.000000
0.021814 1.000000 0.000000
0.032665 1.000000 0.000000
0.049365 1.000000 0.000000
0.076343 1.000000 0.000000
0.119370 1.000000 0.000000
0.187392 1.000000 0.000000
0.288441 1.000000 0.000000
0.423006 1.000000 0.000000
0.566445 1.000000 0.000000
0.694060 1.000000 0.000000
0.839041 1.000000 0.000000
1.000000 1.000000 0.000000
1.000000 1.000000 0.000000
1.000000 1.000000 0.000000
1.000000 1.000000 0.000000
1.000000 1.000000 0.000000
1.000000 1.000000 0.000000
1.000000 1.000000 0.000000
1.000000 1.000000 0.000000
1.000000 1.000000 0.000000
1.000000 1.000000 0.000000
1.000000 1.000000 0.000000
1.000000 1.000000 0.000000
1.000000 1.000000 0.000000
1.000000 1.000000 0.000000
0.000000 1.000000 0.000000
0.000000 1.000000 0.000000
0.000000 1.000000 0.000000
0.000673 1.000000 0.000000
0.004548 1.000000 0.000000
0.009110 1.000000 0.000000
0.014537 1.000000 0.000000
0.021814 1.000000 0.000000
0.032665 1.000000 0.000000
0.049365 1.000000 0.000000
0.076343 1.000000 0.000000
0.119370 1.000000 0.000000
0.187392 1.000000 0.000000
0.288441 1.000000 0.000000
0.423006 1.000000 0.000000
0.566445 1.000000 0.000000
0.694060 1.000000 0.000000
0.839041 1.000000 0.000000
1.000000 1.000000 0.000000
1.000000 1.000000 0.000000
1.000000 1.000000 0.000000
1.000000 1.000000 0.000000
1.000000 1.000000 0.000000
1.000000 1.000000 0.000000
1.000000 1.000000 0.000000
1.000000 1.000000 0.000000
1.000000 1.000000 0.000000
1.000000 1.000000 0.000000
1.000000 1.000000 0.000000
1.000000 1.000000 0.000000
1.000000 1.000000 0.000000
1.000000 1.000000 0.000000
0.000000 1.000000 0.000000
0.000000 1.000000 0.000000
0.000000 1.000000 0.000000
0.000673 1.000000 0.000000
0.004548 1.000000 0.000000
0.009110 1.000000 0.000000
0.014537 1.000000 0.000000
0.021814 1.000000 0.000000
0.032665 1.000000 0.000000
0.049365 1.000000 0.000000
0.076343 1.000000 0.000000
0.119370 1.000000 0.000000
0.187392 1.000000 0.000000
0.288441 1.000000 0.000000
0.423006 1.000000 0.000000
0.566445 1.000000 0.000000
0.694060 1.000000 0.000000
0.839041 1.000000 0.000000
1.000000 1.000000 0.000000
1.000000 1.000000 0.000000
1.000000 1.000000 0.000000
1.000000 1.000000 0.000000
1.000000 1.000000 0.000000
1.000000 1.000000 0.000000
1.000000 1.000000 0.000000
1.000000 1.000000 0.000000
1.000000 1.000000 0.000000
1.000000 1.000000 0.000000
1.000000 1.000000 0.000000
1.000000 1.000000 0.000000
1.000000 1.000000 0.000000
1.000000 1.000000 0.000000
0.000000 1.000000 0.000000
0.000000 1.000000 0.000000
0.000000 1.000000 0.000000
0.000673 1.000000 0.000000
0.004548 1.000000 0.000000
0.009110 1.000000 0.000000
0.014537 1.000000 0.000000
0.021814 1.000000 0.000000
0.032665 1.000000 0.000000
0.049365 1.000000 0.000000
0.076343 1.000000 0.000000
0.119370 1.000000 0.000000
0.187392 1.000000 0.000000
0.288441 1.000000 0.000000
0.423006 1.000000 0.000000
0.566445 1.000000 0.000000
0.694060 1.000000 0.000000
0.839041 1.000000 0.000000
1.000000 1.000000 0.000000
1.000000 1.000000 0.000000
1.000000 1.000000 0.000000
1.000000 1.000000 0.000000
1.000000 1.000000 0.000000
1.000000 1.000000 0.000000
1.000000 1.000000 0.000000
1.000000 1.000000 0.000000
1.000000 1.000000 0.000000
1.000000 1.000000 0.000000
1.000000 1.000000 0.000000
1.000000 1.000000 0.000000
1.000000 1.000000 0.000000
1.000000 1.000000 0.000000
0.000000 1.000000 0.000000
0.000000 1.000000 0.000000
0.000000 1.000000 0.000000
0.000673 1.000000 0.000000
0.004548 1.000000 0.000000
0.009110 1.000000 0.000000
0.014537 1.000000 0.000000
0.021814 1.000000 0.000000
0.032665 1.000000 0.000000
0.049365 1.000000 0.000000
0.076343 1.000000 0.000000
0.119370 1.000000 0.000000
0.187392 1.000000 0.000000
0.288441 1.000000 0.000000
0.423006 1.000000 0.000000
0.566445 1.000000 0.000000
0.694060 1.000000 0.000000
0.839041 1.000000 0.000000
1.000000 1.000000 0.000000
1.000000 1.000000 0.000000
1.000000 1.000000 0.000000
1.000000 1.000000 0.000000
1.000000 1.000000 0.000000
1.000000 1.000000 0.000000
1.000000 1.000000 0.000000
1.000000 1.000000 0.000000
1.000000 1.000000 0.000000
1.000000 1.000000 0.000000
1.000000 1.000000 0.000000
1.000000 1.000000 0.000000
1.000000 1.000000 0.000000
1.000000 1.000000 0.000000
0.000000 1.000000 0.000000
0.000000 1.000000 0.000000
0.000000 1.000000 0.000000
0.000673 1.000000 0.000000
0.004548 1.000000 0.000000
0.009110 1.000000 0.000000
0.014537 1.000000 0.000000
0.021814 1.000000 0.000000
0.032665 1.000000 0.000000
0.049365 1.000000 0.000000
0.076343 1.000000 0.000000
0.119370 1.000000 0.000000
0.187392 1.000000 0.000000
0.288441 1.000000 0.000000
0.423006 1.000000 0.000000
0.566445 1.000000 0.000000
0.694060 1.000000 0.000000
0.839041 1.000000 0.000000
1.000000 1.000000 0.000000
1.000000 1.000000 0.000000
1.000000 1.000000 0.000000
1.000000 1.000000 0.000000
1.000000 1.000000 0.000000
1.000000 1.000000 0.000000
1.000000 1.000000 0.000000
1.000000 1.000000 0.000000
1.000000 1.000000 0.000000
1.000000 1.000000 0.000000
1.000000 1.000000 0.000000
1.000000 1.000000 0.000000
1.000000 1.000000 0.000000
1.000000 1.000000 0.000000
0.000000 1.000000 0.000000
0.000000 1.000000 0.000000
0.000000 1.000000 0.000000
0.000673 1.000000 0.000000
0.004548 1.000000 0.000000
0.009110 1.000000 0.000000
0.014537 1.000000 0.000000
0.021814 1.000000 0.000000
0.032665 1.000000 0.000000
0.049365 1.000000 0.000000
0.076343 1.000000 0.000000
0.119370 1.000000 0.000000
0.187392 1.000000 0.000000
0.288441 1.000000 0.000000
0.423006 1.000000 0.000000
0.566445 1.000000 0.000000
0.694060 1.000000 0.000000
0.839041 1.000000 0.000000
