Assets/Scene/Kotenbu/Frame.CUBE
#Created by: Adobe Photoshop Export Color Lookup Plugin
TITLE "Frame.psd"
#LUT size
LUT_3D_SIZE 5
#data domain
#LUT data points
DOMAIN_MIN 0.000000 0.000000 0.000000
DOMAIN_MAX 0.903226 0.903226 0.903226
0.000000 0.000000 0.000000
0.021814 0.000000 0.000000
0.423006 0.000000 0.000000
1.000000 0.000000 0.000000
1.000000 0.000000 0.000000
0.000000 0.025174 0.000000
0.021814 0.025174 0.000000
0.423006 0.025174 0.000000
1.000000 0.025174 0.000000
1.000000 0.025174 0.000000
0.000000 0.476360 0.000000
0.021814 0.476360 0.000000
0.423006 0.476360 0.000000
1.000000 0.476360 0.000000
1.000000 0.476360 0.000000
0.000000 1.000000 0.000000
0.021814 1.000000 0.000000
0.423006 1.000000 0.000000
1.000000 1.000000 0.000000
1.000000 1.000000 0.000000
0.000000 1.000000 0.000000
0.021814 1.000000 0.000000
0.423006 1.000000 0.000000
1.000000 1.000000 0.000000
1.000000 1.000000 0.000000
0.000000 0.000000 0.025406
0.021814 0.000000 0.025406
0.423006 0.000000 0.025406
1.000000 0.000000 0.025406
1.000000 0.000000 0.025406
0.000000 0.025174 0.025406
0.021814 0.025174 0.025406
0.423006 0.025174 0.025406
1.000000 0.025174 0.025406
1.000000 0.025174 0.025406
0.000000 0.476360 0.025406
0.021814 0.476360 0.025406
0.423006 0.476360 0.025406
1.000000 0.476360 0.025406
1.000000 0.476360 0.025406
0.000000 1.000000 0.025406
0.021814 1.000000 0.025406
0.423006 1.000000 0.025406
1.000000 1.000000 0.025406
1.000000 1.000000 0.025406
0.000000 1.000000 0.025406
0.021814 1.000000 0.025406
0.423006 1.000000 0.025406
1.000000 1.000000 0.025406
1.000000 1.000000 0.025406
0.000000 0.000000 0.480393
0.021814 0.000000 0.480393
0.423006 0.000000 0.480393
1.000000 0.000000 0.480393
1.000000 0.000000 0.480393
0.000000 0.025174 0.480393
0.021814 0.025174 0.480393
0.423006 0.025174 0.480393
1.000000 0.025174 0.480393
1.000000 0.025174 0.480393
0.000000 0.476360 0.480393
0.021814 0.476360 0.480393
0.423006 0.476360 0.480393
1.000000 0.476360 0.480393
1.000000 0.476360 0.480393
0.000000 1.000000 0.480393
0.021814 1.000000 0.480393
0.423006 1.000000 0.480393
1.000000 1.000000 0.480393
1.000000 1.000000 0.480393
0.000000 1.000000 0.480393
0.021814 1.000000 0.480393
0.423006 1.000000 0.480393
1.000000 1.000000 0.480393
1.000000 1.000000 0.480393
0.000000 0.000000 1.000000
0.021814 0.000000 1.000000
0.423006 0.000000 1.000000
1.000000 0.000000 1.000000
1.000000 0.000000 1.000000
0.000000 0.025174 1.000000
0.021814 0.025174 1.000000
0.423006 0.025174 1.000000
1.000000 0.025174 1.000000
1.000000 0.025174 1.000000
0.000000 0.476360 1.000000
0.021814 0.476360 1.000000
0.423006 0.476360 1.000000
1.000000 0.476360 1.000000
1.000000 0.476360 1.000000
0.000000 1.000000 1.000000
0.021814 1.000000 1.000000
0.423006 1.000000 1.000000
1.000000 1.000000 1.000000
1.000000 1.000000 1.000000
0.000000 1.000000 1.000000
0.021814 1.000000 1.000000
0.423006 1.000000 1.000000
1.000000 1.000000 1.000000
1.000000 1.000000 1.000000
0.000000 0.000000 1.000000
0.021814 0.000000 1.000000
0.423006 0.000000 1.000000
1.000000 0.000000 1.000000
1.000000 0.000000 1.000000
0.000000 0.025174 1.000000
0.021814 0.025174 1.000000
0.423006 0.025174 1.000000
1.000000 0.025174 1.000000
1.000000 0.025174 1.000000
0.000000 0.476360 1.000000
0.021814 0.476360 1.000000
0.423006 0.476360 1.000000
1.000000 0.476360 1.000000
1.000000 0.476360 1.000000
0.000000 1.000000 1.000000
0.021814 1.000000 1.000000
0.423006 1.000000 1.000000
1.000000 1.000000 1.000000
1.000000 1.000000 1.000000
0.000000 1.000000 1.000000
0.021814 1.000000 1.000000
0.423006 1.000000 1.000000
1.000000 1.000000 1.000000
1.000000 1.000000 1.000000
